X: 35081
T: Rolling In The Ryegrass
R: reel
M: 4/4
K: Dmajor
|:A3 F DFAF|G2BG dGBG|A3F DFAF|GBAF EFDF|
A3F DFAF|G2 (3BAG dGBG|FAAF DFAF|GBAF EFDF:|
|:ABde fdef|g2 fg eddB|ABde f3g|afdf efdB|
ABde fdef|g2 fg eddB|ABde f3g|afdf efdB:|

